public/assets/imgs/projetos/icons/localizacao.svg

<svg fill="none" height="39" viewBox="0 0 31 39" width="31" xmlns="http://www.w3.org/2000/svg"><path clip-rule="evenodd" d="m28.505 19.1056-.0118.0429-.0098.0435c-1.2232 5.3889-4.6347 9.903-7.8756 13.1349-1.6061 1.6016-3.1338 2.8521-4.2567 3.6995-.2797.2111-.5336.3967-.7566.556-.1837-.1248-.3881-.2668-.6105-.4257-1.0486-.7493-2.4881-1.869-4.0301-3.3366-3.10227-2.9524-6.51619-7.2136-8.10604-12.6029l-.01677-.0568-.02007-.0558c-.51381-1.4275-.79476-2.9689-.79476-4.5804 0-7.45849 6.03688-13.50479 13.48374-13.50479 7.4469 0 13.4837 6.0463 13.4837 13.50479 0 1.2427-.167 2.4431-.4787 3.5814zm-27.590763 1.6838c3.452963 11.7048 14.711863 18.2106 14.711863 18.2106s12.1371-7.5254 14.8234-19.3603c.3589-1.3107.5505-2.6907.5505-4.1155 0-8.57378-6.9396-15.5242-15.5-15.5242-8.56041 0-15.5 6.95042-15.5 15.5242 0 1.8483.322508 3.6212.914237 5.2652zm14.585763 4.2008c5.2198 0 9.4512-4.2381 9.4512-9.466s-4.2314-9.46598-9.4512-9.46598-9.45122 4.23808-9.45122 9.46598 4.23142 9.466 9.45122 9.466zm0 2.2718c6.4725 0 11.7195-5.2552 11.7195-11.7378 0-6.48261-5.247-11.73781-11.7195-11.73781-6.47251 0-11.71951 5.2552-11.71951 11.73781 0 6.4826 5.247 11.7378 11.71951 11.7378zm0-15.7357-.8526 1.4232c-.3022.5043-.8088.8517-1.3876.9513l-1.084.1865.9717 1.2111c.3304.4118.4865.9369.4348 1.4626l-.1247 1.2703 1.3895-.4763c.4232-.1451.8826-.1451 1.3058 0l1.3077.4482-.1545-1.1776c-.0738-.562.0917-1.1291.4559-1.5629l.9964-1.1867-1.0182-.1752c-.5788-.0996-1.0854-.447-1.3876-.9513zm4.3858 1.2069-1.8896-.3251c-.1447-.0249-.2714-.1117-.3469-.2378l-1.7171-2.8663c-.1958-.32681-.6687-.32681-.8644 0l-1.7171 2.8663c-.0755.1261-.2022.2129-.3469.2378l-2.7721.4769c-.3787.0652-.54826.5138-.30755.8138l2.04455 2.5483c.0826.1029.1216.2342.1087.3656l-.2783 2.8329c-.0359.3656.3178.646.6649.5271l2.8728-.9848c.1058-.0363.2206-.0363.3264 0l2.8455.9754c.3539.1213.7117-.172.663-.5434l-.3663-2.7917c-.0185-.1405.0229-.2823.1139-.3907l1.5655-1.8645.0071-.0084.5549-.6608c.2505-.2984.0832-.7565-.3005-.8225l-.8496-.1462-.0108-.0019z" fill="#000" fill-rule="evenodd"/></svg>

<svg width="31" height="39" viewBox="0 0 31 39" fill="none" xmlns="http://www.w3.org/2000/svg">
<path fill-rule="evenodd" clip-rule="evenodd" d="M28.505 19.1056L28.4932 19.1485L28.4834 19.192C27.2602 24.5809 23.8487 29.095 20.6078 32.3269C19.0017 33.9285 17.474 35.179 16.3511 36.0264C16.0714 36.2375 15.8175 36.4231 15.5945 36.5824C15.4108 36.4576 15.2064 36.3156 14.984 36.1567C13.9354 35.4074 12.4959 34.2877 10.9539 32.8201C7.85163 29.8677 4.43771 25.6065 2.84786 20.2172L2.83109 20.1604L2.81102 20.1046C2.29721 18.6771 2.01626 17.1357 2.01626 15.5242C2.01626 8.06571 8.05314 2.01941 15.5 2.01941C22.9469 2.01941 28.9837 8.06571 28.9837 15.5242C28.9837 16.7669 28.8167 17.9673 28.505 19.1056ZM0.914237 20.7894C4.3672 32.4942 15.6261 39 15.6261 39C15.6261 39 27.7632 31.4746 30.4495 19.6397C30.8084 18.329 31 16.949 31 15.5242C31 6.95042 24.0604 0 15.5 0C6.93959 0 0 6.95042 0 15.5242C0 17.3725 0.322508 19.1454 0.914237 20.7894ZM15.5 24.9902C20.7198 24.9902 24.9512 20.7521 24.9512 15.5242C24.9512 10.2963 20.7198 6.05822 15.5 6.05822C10.2802 6.05822 6.04878 10.2963 6.04878 15.5242C6.04878 20.7521 10.2802 24.9902 15.5 24.9902ZM15.5 27.262C21.9725 27.262 27.2195 22.0068 27.2195 15.5242C27.2195 9.04159 21.9725 3.78639 15.5 3.78639C9.02749 3.78639 3.78049 9.04159 3.78049 15.5242C3.78049 22.0068 9.02749 27.262 15.5 27.262ZM15.5 11.5263L14.6474 12.9495C14.3452 13.4538 13.8386 13.8012 13.2598 13.9008L12.1758 14.0873L13.1475 15.2984C13.4779 15.7102 13.634 16.2353 13.5823 16.761L13.4576 18.0313L14.8471 17.555C15.2703 17.4099 15.7297 17.4099 16.1529 17.555L17.4606 18.0032L17.3061 16.8256C17.2323 16.2636 17.3978 15.6965 17.762 15.2627L18.7584 14.076L17.7402 13.9008C17.1614 13.8012 16.6548 13.4538 16.3526 12.9495L15.5 11.5263ZM19.8858 12.7332L17.9962 12.4081C17.8515 12.3832 17.7248 12.2964 17.6493 12.1703L15.9322 9.304C15.7364 8.97719 15.2635 8.97719 15.0678 9.304L13.3507 12.1703C13.2752 12.2964 13.1485 12.3832 13.0038 12.4081L10.2317 12.885C9.853 12.9502 9.68344 13.3988 9.92415 13.6988L11.9687 16.2471C12.0513 16.35 12.0903 16.4813 12.0774 16.6127L11.7991 19.4456C11.7632 19.8112 12.1169 20.0916 12.464 19.9727L15.3368 18.9879C15.4426 18.9516 15.5574 18.9516 15.6632 18.9879L18.5087 19.9633C18.8626 20.0846 19.2204 19.7913 19.1717 19.4199L18.8054 16.6282C18.7869 16.4877 18.8283 16.3459 18.9193 16.2375L20.4848 14.373L20.4848 14.373L20.4919 14.3646L21.0468 13.7038C21.2973 13.4054 21.13 12.9473 20.7463 12.8813L19.8967 12.7351L19.8859 12.7332L19.8858 12.7332Z" fill="black"/>
</svg>
